Hatter-kde/actions/24/quickopen-file.svg

<svg xmlns="http://www.w3.org/2000/svg" viewBox="0 0 24 24">
  <defs id="defs3051">
    <style type="text/css" id="current-color-scheme">
      .ColorScheme-Text {
        color:#363636;
      }
      </style>
  </defs>
 <path style="fill:currentColor;fill-opacity:1;stroke:none" 
     d="M 9 4 L 5 11 L 7 11 L 7 16 L 11 9 L 9 9 L 9 4 z M 10 4 L 10 5 L 18 5 L 18 15 L 14 15 L 14 15.998047 L 14 18.998047 L 6 18.998047 L 6 16 L 5 16 L 5 20 L 6 20 L 14 20 L 15 20 L 15 19.988281 L 15.007812 20 L 19 16.007812 L 19 15.996094 L 19 15 L 19 5 L 19 4 L 10 4 z "
     class="ColorScheme-Text"
     />
</svg>

<?xml version="1.0" encoding="UTF-8"?>
<svg viewBox="0 0 24 24" xmlns="http://www.w3.org/2000/svg">
 <defs id="defs3051">
  <style id="current-color-scheme" type="text/css">.ColorScheme-Text {
        color:#363636;
      }</style>
 </defs>
 <path class="ColorScheme-Text" d="m9 4-4 7h2v5l4-7h-2v-5zm1 0v1h8v10h-4v0.99805 3h-8v-2.998h-1v4h1 8 1v-0.011719l0.007812 0.011719 3.9922-3.9922v-0.011718-0.99609-10-1h-9z" fill="currentColor"/>
</svg>
